X: 1
T: the Banks of the Ilen
N: variant of "the Humours of Drinagh" jig
R: jig
S: Fiddle Hell Online 2021-11-7 Matt Cranitch workshop on "metrical crossover"
Z: 2021 John Chambers <jc:trillian.mit.edu>
N: Pickup notes and endings adjusted to simplify and agree with some other transcriptions.
M: 4/4
L: 1/8
K: D
AG |\
| "D"FDFA d2fd | d2fd "A"ecAG | "D"FDFA d2fd | dcAF "G"G2 :|
|: de \
| "D"f3f "G"g2fg | "D"abag  fdde | "D"f3f "G"g2fg | "D"abaf "G"g2 fg |
| "D"agfa "G"gfeg | "D"fedf "A"ecAG | "D"FDFA d2fd | dcAF "G"G2 :|
